X: 1
T: Shoemaker's Dance (F)
O: Denmark, N.Germany
Z: John Chambers <jc@trillian.mit.edu>
M: 2/4
L: 1/8
K: F
|: "F"cc c/A/F/A/ | cc c/A/F/A/ | "Bb"B>B "F"A>A | "C7"GG "F"F2 :|
|: "C7"GG CC | "F"FA c2 | "Bb"B>B "F"A>A | "C7"GG "F"F2 :|
